images/icons/v2/sticker-outline-24.svg

<svg height="24" viewBox="0 0 24 24" width="24" xmlns="http://www.w3.org/2000/svg"><path d="m21.2 5.072a5.55 5.55 0 0 0 -2.272-2.272c-.977-.522-1.947-.8-4.62-.8h-4.616c-2.673 0-3.643.278-4.62.8a5.55 5.55 0 0 0 -2.272 2.272c-.522.977-.8 1.947-.8 4.62v4.616c0 2.673.278 3.643.8 4.62a5.55 5.55 0 0 0 2.272 2.272 7.326 7.326 0 0 0 3.616.785h.1a3 3 0 0 0 1.7-.53l10.246-7.055a3 3 0 0 0 1.266-2.451v-2.257c0-2.673-.278-3.643-.8-4.62zm-12.461 15.413a5.82 5.82 0 0 1 -2.96-.608 4.017 4.017 0 0 1 -1.656-1.656c-.365-.683-.623-1.363-.623-3.913v-4.616c0-2.55.258-3.231.623-3.913a4.017 4.017 0 0 1 1.656-1.656c.683-.365 1.363-.623 3.913-.623h4.616c2.55 0 3.231.258 3.913.623a4.017 4.017 0 0 1 1.656 1.656c.365.683.623 1.363.623 3.913v2.257a1.519 1.519 0 0 1 -.036.3h-3.273c-2.8 0-3.872.3-4.975.89a6.172 6.172 0 0 0 -2.575 2.575c-.575 1.074-.872 2.132-.888 4.769h-.014zm1.525-.7a6.631 6.631 0 0 1 .7-3.362 4.7 4.7 0 0 1 1.96-1.961c.755-.4 1.549-.712 4.268-.712h1.837z"/></svg>

<svg xmlns="http://www.w3.org/2000/svg" width="24" height="24" viewBox="0 0 24 24"><title>sticker-outline-24</title><path d="M21.2,5.072A5.55,5.55,0,0,0,18.928,2.8c-.977-.522-1.947-.8-4.62-.8H9.692c-2.673,0-3.643.278-4.62.8A5.55,5.55,0,0,0,2.8,5.072c-.522.977-.8,1.947-.8,4.62v4.616c0,2.673.278,3.643.8,4.62A5.55,5.55,0,0,0,5.072,21.2a7.326,7.326,0,0,0,3.616.785h.1a3,3,0,0,0,1.7-.53L20.734,14.4A3,3,0,0,0,22,11.949V9.692C22,7.019,21.722,6.049,21.2,5.072ZM8.739,20.485a5.82,5.82,0,0,1-2.96-.608,4.017,4.017,0,0,1-1.656-1.656c-.365-.683-.623-1.363-.623-3.913V9.692c0-2.55.258-3.231.623-3.913A4.017,4.017,0,0,1,5.779,4.123C6.462,3.758,7.142,3.5,9.692,3.5h4.616c2.55,0,3.231.258,3.913.623a4.017,4.017,0,0,1,1.656,1.656c.365.683.623,1.363.623,3.913v2.257a1.519,1.519,0,0,1-.036.3H17.191c-2.8,0-3.872.3-4.975.89a6.172,6.172,0,0,0-2.575,2.575c-.575,1.074-.872,2.132-.888,4.769H8.739Zm1.525-.7a6.631,6.631,0,0,1,.7-3.362,4.7,4.7,0,0,1,1.96-1.961c.755-.4,1.549-.712,4.268-.712h1.837Z"/></svg>
